X: 5
T: the Mad Mason
R: reel
M: C
L: 1/8
Z: 2011 John Chambers <jc:trillian.mit.edu>
B: William Randall eds "Twenty Four Country Dances", London 1771, p.5
K: C
|: C/C/C EC GEcG | A/A/A cA fdcB | C/C/C EC GEcG | AdGB c2C2 :|
|: c/c/c ec gGBG | A/A/A cA eEGE | F/F/F AF Gg2f | edcB c2C2 :|
% - - - - - - - - - - - - - - - - - - - - - - - - -
%%begintext align
%% Turn your Partner round with your Right
%% Hand Cast off 1 Cu. turn Left Hand the
%% Gent.n fall in at Bottom and the Lady at
%% top foot it 3 and 3 sideways set corners
%% and turn lead outsides
%%endtext
% - - - - - - - - - - - - - - - - - - - - - - - - -

%%sep 1 1 500
%%sep 1 1 500
